src/images/poiIcons/sport/gym.svg

<?xml version="1.0" encoding="UTF-8" standalone="no"?>
<!-- Created with Inkscape (http://www.inkscape.org/) -->

<svg:svg
   xmlns:dc="http://purl.org/dc/elements/1.1/"
   xmlns:cc="http://creativecommons.org/ns#"
   xmlns:rdf="http://www.w3.org/1999/02/22-rdf-syntax-ns#"
   xmlns:svg="http://www.w3.org/2000/svg"
   xmlns:sodipodi="http://sodipodi.sourceforge.net/DTD/sodipodi-0.dtd"
   xmlns:inkscape="http://www.inkscape.org/namespaces/inkscape"
   version="1.0"
   width="580"
   height="580"
   id="svg2"
   inkscape:version="0.48.1 r9760"
   sodipodi:docname="gym.svg">
  <sodipodi:namedview
     pagecolor="#ffffff"
     bordercolor="#666666"
     borderopacity="1"
     objecttolerance="10"
     gridtolerance="10"
     guidetolerance="10"
     inkscape:pageopacity="0"
     inkscape:pageshadow="2"
     inkscape:window-width="640"
     inkscape:window-height="480"
     id="namedview16"
     showgrid="false"
     inkscape:zoom="0.45172414"
     inkscape:cx="290"
     inkscape:cy="290"
     inkscape:window-x="0"
     inkscape:window-y="0"
     inkscape:window-maximized="0"
     inkscape:current-layer="svg2" />
  <svg:metadata
     id="metadata2975">
    <RDF>
      <Work
         about="">
        <format>image/svg+xml</format>
        <type
           resource="http://purl.org/dc/dcmitype/StillImage" />
        <license
           resource="http://web.resource.org/cc/PublicDomain" />
        <language>en</language>
      </Work>
    </RDF>
    <rdf:RDF>
      <cc:Work
         rdf:about="">
        <dc:format>image/svg+xml</dc:format>
        <dc:type
           rdf:resource="http://purl.org/dc/dcmitype/StillImage" />
      </cc:Work>
    </rdf:RDF>
  </svg:metadata>
  <svg:defs
     id="defs4" />
  <svg:g
     id="g1327">
    <svg:path
       d="M 66.275,1.768 C 24.94,1.768 1.704,23.139 1.704,66.804 l 0,450.123 c 0,40.844 20.895,62.229 62.192,62.229 l 452.024,0 c 41.307,0 62.229,-20.315 62.229,-62.229 l 0,-450.123 c 0,-42.601 -20.922,-65.036 -63.521,-65.036 -0.004,0 -448.495,-0.143 -448.353,0 z"
       style="fill:#fff;;stroke:#f00;;stroke-width:3.40799999"
       id="path1329"
       inkscape:connector-curvature="0" />
  </svg:g>
  <svg:circle
     cx="123.427"
     cy="496.92999"
     r="33"
     style="fill:#000;"
     id="circle2531"
     sodipodi:cx="123.427"
     sodipodi:cy="496.92999"
     sodipodi:rx="33"
     sodipodi:ry="33" />
  <svg:circle
     cx="428.427"
     cy="470.92999"
     r="59"
     style="fill:#000;"
     id="circle2533"
     sodipodi:cx="428.427"
     sodipodi:cy="470.92999"
     sodipodi:rx="59"
     sodipodi:ry="59" />
  <svg:path
     d="m 415.364,390.179 -0.322,0.05 -301.628,51.934 c -26.487,4.862 -45.657,27.89 -45.657,54.768 0,30.696 24.974,55.67 55.67,55.67 l 305,0 c 45.033,0 81.67,-36.637 81.67,-81.67 0,-45.033 -36.637,-81.67 -81.67,-81.67 -6.581,-0.001 -12.036,0.764 -13.063,0.918 z m 2.069,13.845 c 0.524,-0.078 5.285,-0.765 10.994,-0.765 37.313,0 67.67,30.356 67.67,67.67 0,18.043 -7.048,35.028 -19.845,47.825 -12.797,12.797 -29.782,19.846 -47.825,19.846 l -305,0 c -22.977,0 -41.67,-18.693 -41.67,-41.67 0,-20.12 14.345,-37.356 34.108,-40.984 0,0 301.33,-51.882 301.479,-51.907 0.044,-0.008 0.089,-0.015 0.089,-0.015 z"
     style="fill:#000;"
     id="path2535"
     inkscape:connector-curvature="0" />
  <svg:path
     d="m 271.778,127.273 c -3.729,-9.387 -14.31,-13.998 -23.715,-10.392 l -45.53,18.081 c -0.961,0.212 -1.919,0.48 -2.864,0.856 -4.792,1.904 -8.334,5.596 -10.182,10.003 -1.934,4.367 -2.187,9.476 -0.284,14.265 0.375,0.944 0.836,1.824 1.342,2.668 l 18.102,45.524 c 3.833,9.315 14.448,13.845 23.834,10.115 9.386,-3.729 13.998,-14.311 10.391,-23.715 l -12.38,-31.176 31.171,-12.394 c 9.315,-3.833 13.845,-14.448 10.115,-23.835 z"
     style="fill:#000;"
     id="path2537"
     inkscape:connector-curvature="0" />
  <svg:path
     d="m 351.263,326.572 c -0.585,-1.015 -1.259,-1.943 -1.977,-2.823 l -28.247,-48.96 c -5.927,-9.997 -18.801,-13.401 -28.896,-7.58 -10.094,5.819 -13.597,18.669 -7.914,28.805 l 19.325,33.532 -33.523,19.341 c -9.996,5.927 -13.4,18.8 -7.579,28.896 5.82,10.095 18.668,13.599 28.805,7.915 l 48.976,-28.226 c 1.061,-0.401 2.108,-0.867 3.123,-1.452 5.151,-2.971 8.581,-7.773 9.958,-13.11 1.482,-5.308 0.92,-11.184 -2.051,-16.338 z"
     style="fill:#000;"
     id="path2539"
     inkscape:connector-curvature="0" />
  <svg:circle
     cx="336.24799"
     cy="72.086998"
     r="44"
     style="fill:#000;"
     id="circle2541"
     sodipodi:cx="336.24799"
     sodipodi:cy="72.086998"
     sodipodi:rx="44"
     sodipodi:ry="44" />
  <svg:path
     d="m 402.479,164.292 c -4.765,-8.511 -15.484,-11.582 -24.03,-6.93 l -28.273,15.821 -20.548,-36.694 c -1.448,-6.397 -5.807,-12.042 -12.292,-14.839 -10.7,-4.615 -23.095,0.255 -27.826,10.87 L 178.514,389.862 c -4.65,10.782 0.321,23.291 11.103,27.94 10.782,4.65 23.291,-0.32 27.941,-11.103 l 96.837,-224.573 12.012,21.467 c 0.324,0.892 0.704,1.774 1.183,2.63 2.434,4.347 6.421,7.269 10.876,8.477 4.428,1.295 9.351,0.887 13.693,-1.545 0.855,-0.479 1.64,-1.033 2.383,-1.624 l 41.288,-23.13 c 8.431,-4.854 11.417,-15.596 6.649,-24.109 z"
     style="fill:#000;"
     id="path2543"
     inkscape:connector-curvature="0" />
</svg:svg>

<?xml version="1.0" encoding="UTF-8" standalone="no"?>
<!-- Created with Inkscape (http://www.inkscape.org/) -->

<svg:svg version="1.0" width="524.51398" height="524.51398" id="svg2" inkscape:version="1.1.1 (3bf5ae0d25, 2021-09-20)" sodipodi:docname="gym.svg" xmlns:inkscape="http://www.inkscape.org/namespaces/inkscape" xmlns:sodipodi="http://sodipodi.sourceforge.net/DTD/sodipodi-0.dtd" xmlns:svg="http://www.w3.org/2000/svg" xmlns:rdf="http://www.w3.org/1999/02/22-rdf-syntax-ns#" xmlns:cc="http://creativecommons.org/ns#" xmlns:dc="http://purl.org/dc/elements/1.1/">
  <sodipodi:namedview pagecolor="#ffffff" bordercolor="#666666" borderopacity="1" objecttolerance="10" gridtolerance="10" guidetolerance="10" inkscape:pageopacity="0" inkscape:pageshadow="2" inkscape:window-width="1883" inkscape:window-height="1062" id="namedview16" showgrid="false" inkscape:zoom="0.45172414" inkscape:cx="223.58779" inkscape:cy="262.32824" inkscape:window-x="0" inkscape:window-y="0" inkscape:window-maximized="1" inkscape:current-layer="svg2" inkscape:pagecheckerboard="0" fit-margin-top="0" fit-margin-left="0" fit-margin-right="0" fit-margin-bottom="0" />
  <svg:metadata id="metadata2975">
    <RDF>
      <Work about="">
        <format>image/svg+xml</format>
        <type resource="http://purl.org/dc/dcmitype/StillImage" />
        <license resource="http://web.resource.org/cc/PublicDomain" />
        <language>en</language>
      </Work>
    </RDF>
    <rdf:RDF>
      <cc:Work rdf:about="">
        <dc:format>image/svg+xml</dc:format>
        <dc:type rdf:resource="http://purl.org/dc/dcmitype/StillImage" />
      </cc:Work>
    </rdf:RDF>
  </svg:metadata>
  <svg:defs id="defs4" />
  <svg:g id="g1327" transform="translate(-67.757,-28.086998)" />
  <svg:g id="g837" transform="translate(-26.670011,-28.08701)">
    <svg:circle cx="123.427" cy="496.92999" r="33" style="fill:#000000" id="circle2531" />
    <svg:circle cx="428.427" cy="470.92999" r="59" style="fill:#000000" id="circle2533" />
    <svg:path d="M 415.364,390.179 L 415.042,390.229 L 113.414,442.163 C 86.927,447.025 67.757,470.053 67.757,496.931 C 67.757,527.627 92.731,552.601 123.427,552.601 H 428.427 C 473.46,552.601 510.097,515.964 510.097,470.931 C 510.097,425.898 473.46,389.261 428.427,389.261 C 421.846,389.26 416.391,390.025 415.364,390.179 Z M 417.433,404.024 C 417.957,403.946 422.718,403.259 428.427,403.259 C 465.74,403.259 496.097,433.615 496.097,470.929 C 496.097,488.972 489.049,505.957 476.252,518.754 C 463.455,531.551 446.47,538.6 428.427,538.6 H 123.427 C 100.45,538.6 81.757,519.907 81.757,496.93 C 81.757,476.81 96.102,459.574 115.865,455.946 C 115.865,455.946 417.195,404.064 417.344,404.039 C 417.388,404.031 417.433,404.024 417.433,404.024 Z" style="fill:#000000" id="path2535" inkscape:connector-curvature="0" />
    <svg:path d="M 271.778,127.273 C 268.049,117.886 257.468,113.275 248.063,116.881 L 202.533,134.962 C 201.572,135.174 200.614,135.442 199.669,135.818 C 194.877,137.722 191.335,141.414 189.487,145.821 C 187.553,150.188 187.3,155.297 189.203,160.086 C 189.578,161.03 190.039,161.91 190.545,162.754 L 208.647,208.278 C 212.48,217.593 223.095,222.123 232.481,218.393 C 241.867,214.664 246.479,204.082 242.872,194.678 L 230.492,163.502 L 261.663,151.108 C 270.978,147.275 275.508,136.66 271.778,127.273 Z" style="fill:#000000" id="path2537" inkscape:connector-curvature="0" />
    <svg:path d="M 351.263,326.572 C 350.678,325.557 350.004,324.629 349.286,323.749 L 321.039,274.789 C 315.112,264.792 302.238,261.388 292.143,267.209 C 282.049,273.028 278.546,285.878 284.229,296.014 L 303.554,329.546 L 270.031,348.887 C 260.035,354.814 256.631,367.687 262.452,377.783 C 268.272,387.878 281.12,391.382 291.257,385.698 L 340.233,357.472 C 341.294,357.071 342.341,356.605 343.356,356.02 C 348.507,353.049 351.937,348.247 353.314,342.91 C 354.796,337.602 354.234,331.726 351.263,326.572 Z" style="fill:#000000" id="path2539" inkscape:connector-curvature="0" />
    <svg:circle cx="336.24799" cy="72.086998" r="44" style="fill:#000000" id="circle2541" />
    <svg:path d="M 402.479,164.292 C 397.714,155.781 386.995,152.71 378.449,157.362 L 350.176,173.183 L 329.628,136.489 C 328.18,130.092 323.821,124.447 317.336,121.65 C 306.636,117.035 294.241,121.905 289.51,132.52 L 178.514,389.862 C 173.864,400.644 178.835,413.153 189.617,417.802 C 200.399,422.452 212.908,417.482 217.558,406.699 L 314.395,182.126 L 326.407,203.593 C 326.731,204.485 327.111,205.367 327.59,206.223 C 330.024,210.57 334.011,213.492 338.466,214.7 C 342.894,215.995 347.817,215.587 352.159,213.155 C 353.014,212.676 353.799,212.122 354.542,211.531 L 395.83,188.401 C 404.261,183.547 407.247,172.805 402.479,164.292 Z" style="fill:#000000" id="path2543" inkscape:connector-curvature="0" />
  </svg:g>
</svg:svg>
